X:1
T:Title
%%score 1 2
L:1/8
Q:1/4=75
M:6/8
K:G
V:1 treble nm="Strings 1, Soprano"
V:2 bass nm="Strings 1, Bass"
V:1
 z3 z2 [B,D] | [DG]2 [DG] [DG]2 [DA] | [GB]3 [DG]2 [=FG] | [EA]2 [EA] [DG]2 [DF] | %4
w: 1.~Oh,~|why~ should~ I~ be~|i dle,~ While~|there's~ so~ much~ to~|
 [DG]3- [DG]2 [B,D] | [DG]2 [DG] [DG]2 [DA] | [GB]3 [DG]2 [=FG] | [EA]2 [EA] [DG]2 [DF] | %8
w: do?~ * The~|wheat~ is~ ripe~ to~|har vest,~ And~|la bor ers~ are~|
 [DG]3- [DG]2 [GB] | [Gd]2 [Gd] [Gd]2 [GB] | [Gd]3- [Gd]2 [DG] | [GB]2 [GB] [GB]2 [FA] | %12
w: few.~ * *||||
 [GB]3- [GB]2 [B,D] | [DG]2 [DG] [DG]2 [GB] | [Gd]3 [DB]2 D/D/ | D2 [GB] [GB]2 [DA] | [DG]6 |] %17
w: |||||
V:2
 z3 z2 [G,B,] | [G,B,]2 [G,B,] [G,B,]2 [G,C] | [G,D]3 [G,B,]2 [B,,D] | %3
 [C,C]2 [C,C] [D,B,]2 [D,A,] | [G,,G,B,]3- [G,,G,B,]2 [G,B,] | [G,B,]2 [G,B,] [G,B,]2 [G,C] | %6
 [G,D]3 [G,B,]2 [B,,D] | [C,C]2 [C,C] [D,B,]2 [D,A,] | [G,,G,B,]3- [G,,G,B,]2 [G,D] | %9
 [G,B,]2 [G,B,] [G,B,]2 [G,D] | [G,B,]2 [G,B,] [G,B,]2 [G,B,] | [G,D]2 [G,D] [D,D]2 [D,D] | %12
 [G,D]2 [G,D] [G,D]2 G, | [G,B,]2 [G,B,] [G,B,]2 [G,D] | [G,B,]3 G,2 [B,,G,]/[B,,G,]/ | %15
 [D,B,]2 [D,D] [D,D]2 [D,C] | [G,,G,B,]6 |] %17

